X: 22194
T: La Bergere Aux Champs
R: polka
M: 2/4
K: Aminor
E|A>B cB|A3 e|Be dc|B2 z B|A{B}A G=F|E3 e|
Be dc|B4|z2 z B|ed cB|A2 AA|BA ^GA|
B2 z B|ed cB|A2 ^GA|B/c/d Bc|A3||
Be dc|B (3 A/B/A/ G2|AB cd/c/|B2 z B|ed cB|
B (3A/B/A/ G2|A2 Bc|d4|B2 c2|A4||

